!!!COM: Bach, Johann Sebastian
!!!OPR: Joh. Seb. Bachs vierstimmige Choralgesänge
!!!XEN: Four-part Chorales
!!!OTL: Chorale 143. Nun sich der Tag geendet hat
!!!SCT: BWV 396
!!!SCA: Thematisch-systematisches Verzeichnis der musikalischen Werke Johann Sebastian Bach: Bach-Werke-Verzeichnis (Schmieder)
!!!YOR: Bach Gesellschaft Edition xxxix
!!!ENC: Steven Rasmussen
!!!CDT: 1685/3//-1750/7/28/
!!!OCY: Deutschland
!!!YEC: Copyright (c) 1994, 2000 Center for Computer Assisted Research in the Humanities
!!!YEM: Rights to all derivative editions reserved
!!!YEN: United States of America
**kern	**kern	**kern	**kern	**silbe
*I:[BASSO]	*I:[TENORE]	*I:[ALTO]	*I:[SOPRANO]	*I:[SOPRANO]
*clefF4	*clefGv2	*clefG2	*clefG2	*
*k[]	*k[]	*k[]	*k[]	*
*a:	*a:	*a:	*a:	*
*M4/4	*M4/4	*M4/4	*M4/4	*
8AAL	4c	4a	4ee	Nun
8BBJ	.	.	.	.
=1	=1	=1	=1	=1
8CL	4c	4e	4a	sich
8BBJ	.	.	.	.
8AAL	4B	4e	4b	der
8GG#J	.	.	.	.
4AA	8BL	8eL	4cc	Tag
.	8AJ	8fJ	.	.
4EE	8GL	4g	4cc	ge-
.	8cJ	.	.	.
=2	=2	=2	=2	=2
4FF	8cL	4a	4dd	-en-
.	16BL	.	.	.
.	16AJJ	.	.	.
4GG	4B	4g	4dd	-det
4CC;	4c;	4g;	4ee;	hat,
4C	4c	4g	4ee	und
=3	=3	=3	=3	=3
4FF#	4c	4a	4dd	kei-
4GG#	4B	4e	4ee	-ne
8AAL	4B	4e	4cc	Sonn'
8BBJ	.	.	.	.
8CL	4A	4e	4cc	mehr
8DJ	.	.	.	.
=4	=4	=4	=4	=4
2E;	(4A	2e;	2b;	scheint,
.	4G#;)	.	.	.
4r	4r	4r	4r	.
4GG#	4e	4b	4ee	schlÃ¤ft
=5	=5	=5	=5	=5
4AA	4e	8bL	4cc	Al-
.	.	8aJ	.	.
8EL	4e	4g#	4b	-les,
8DJ	.	.	.	.
4C	4e	8aL	4cc	was
.	.	8gnJ	.	.
8DL	4d	4f	4a	sich
8CJ	.	.	.	.
=6	=6	=6	=6	=6
8BBL	8dL	8fL	4g#	ab-
8EJ	8BJ	8eJ	.	.
8CL	4c	8eL	4a	-ge-
8AAJ	.	8f#J	.	.
4E;	4B;	4g#;	4b;	-matt',
4C	4A	4a	4ee	und
=7	=7	=7	=7	=7
4BB	4d	8aL	4dd	was
.	.	8g#J	.	.
4AA	4e	4a	4cc	zu-
4D	8fL	4a	4.b	-vor
.	8d	.	.	.
4E	8BJ	4g#	.	.
.	16eLL	.	8b	ge-
.	16dJJ	.	.	.
=8	=8	=8	=8	=8
2AA;	2c#;	2e;	2a;	-weint.
==|!	==|!	==|!	==|!	==|!
*-	*-	*-	*-	*-
!!!RWG: Key is interpreted using the Humdrum key tool.
!!!URL-pdf: https://s9.imslp.org/files/imglnks/usimg/6/6b/IMSLP24489-PMLP09471-CCARH_Bach_Chorales.pdf#page=100 Musedata edition
!!!URL-pdf: https://s9.imslp.org/files/imglnks/usimg/7/7a/IMSLP04155-Bach_-_BGA_253-438.pdf#page=78 	Bach-Gesellschaft Ausgabe, Band 39 (pp.175-276) Leipzig: Breitkopf und Härtel, 1892. Plate B.W. XXXIX.
!!!END: 1994/07/27
!!!EMD: Converted from MuseData to Humdrum Dec 19, 2000, by Andreas Kornstaedt using muse2kern.
!!!EED: Craig Stuart Sapp
!!!EEV: 2024/03/31
!!!filter-keyboard: satb2gs
!!!title: @{OTL} (@{SCT})
